public/assets/img/tech-logo/ts.svg

<svg width="100" height="100" viewBox="0 0 100 100" fill="none" xmlns="http://www.w3.org/2000/svg">
<g id="typescript">
<g id="typescript_2">
<path id="Vector" d="M0 0.000488281H100V100H0V0.000488281Z" fill="#017ACB"/>
<path id="Vector_2" d="M48.0157 37.0317H52.8126V45.313H39.8438V82.1567L39.5 82.2505C39.0313 82.3755 32.8594 82.3755 31.5313 82.2349L30.4688 82.1411V45.313H17.5V37.0317L21.6094 36.9849C23.8594 36.9536 29.6406 36.9536 34.4532 36.9849C39.2657 37.0161 45.3594 37.0317 48.0157 37.0317ZM84.6251 78.2505C82.7189 80.2661 80.672 81.3911 77.2657 82.313C75.7813 82.7192 75.5313 82.7349 72.1876 82.7192C68.8438 82.7036 68.5782 82.7036 66.9532 82.2817C62.7501 81.2036 59.3594 79.0942 57.0469 76.1099C56.3907 75.2661 55.3126 73.5161 55.3126 73.2974C55.3126 73.2349 55.4688 73.0942 55.6719 73.0005C55.8751 72.9067 56.2969 72.6411 56.6407 72.438C56.9844 72.2349 57.6094 71.8599 58.0313 71.6411C58.4532 71.4224 59.6719 70.7036 60.7345 70.063C61.797 69.4224 62.7657 68.9067 62.8751 68.9067C62.9845 68.9067 63.1876 69.1255 63.3438 69.3911C64.2813 70.9692 66.4688 72.9849 68.0157 73.6724C68.9688 74.0786 71.0782 74.5317 72.0938 74.5317C73.0313 74.5317 74.7501 74.1255 75.672 73.7036C76.6563 73.2505 77.1564 72.7974 77.7501 71.8911C78.1564 71.2505 78.2032 71.0786 78.1876 69.8599C78.1876 68.7349 78.1251 68.4224 77.8126 67.9067C76.9376 66.4692 75.7501 65.7192 70.9376 63.5942C65.9688 61.3911 63.7345 60.0786 61.9219 58.313C60.5782 57.0005 60.3126 56.6411 59.4688 55.0005C58.3751 52.8911 58.2344 52.2036 58.2188 49.063C58.2032 46.8599 58.2501 46.1411 58.4844 45.3911C58.8126 44.2661 59.8751 42.0942 60.3594 41.5474C61.3594 40.3755 61.7188 40.0161 62.422 39.438C64.547 37.688 67.8595 36.5317 71.0313 36.4224C71.3907 36.4224 72.5782 36.4849 73.6876 36.563C76.8751 36.8286 79.047 37.6099 81.1407 39.2817C82.7189 40.5317 85.1095 43.4692 84.8751 43.8599C84.7189 44.0942 78.4845 48.2505 78.0782 48.3755C77.8282 48.4536 77.6564 48.3599 77.3126 47.9536C75.1876 45.4067 74.3282 44.8599 72.2657 44.7349C70.797 44.6411 70.0157 44.813 69.0313 45.4692C68.0001 46.1567 67.5001 47.2036 67.5001 48.6567C67.5157 50.7817 68.3282 51.7817 71.3282 53.2661C73.2657 54.2192 74.922 55.0005 75.047 55.0005C75.2345 55.0005 79.2501 57.0005 80.297 57.6255C85.172 60.4849 87.1564 63.4224 87.672 68.4849C88.047 72.2974 86.9689 75.7817 84.6251 78.2505Z" fill="white"/>
</g>
</g>
</svg>

<svg xmlns="http://www.w3.org/2000/svg" width="100" height="100" fill="none"><path fill="#017ACB" d="M0 0h100v100H0z"/><path fill="#fff" d="M48.016 37.032h4.797v8.281h-12.97v36.844l-.343.094c-.469.124-6.64.124-7.969-.016l-1.062-.094V45.313H17.5v-8.281l4.11-.047c2.25-.031 8.03-.031 12.843 0s10.906.047 13.563.047m36.61 41.219c-1.907 2.015-3.954 3.14-7.36 4.062-1.485.406-1.735.422-5.078.406s-3.61-.015-5.235-.437c-4.203-1.078-7.594-3.188-9.906-6.172-.656-.844-1.734-2.594-1.734-2.813 0-.062.156-.203.359-.296.203-.094.625-.36.969-.563s.968-.578 1.39-.797 1.64-.937 2.703-1.578c1.063-.64 2.032-1.156 2.141-1.156.11 0 .313.219.469.484.937 1.578 3.125 3.594 4.672 4.281.953.407 3.062.86 4.078.86.937 0 2.656-.406 3.578-.828.984-.453 1.484-.907 2.078-1.813.406-.64.453-.812.438-2.031 0-1.125-.063-1.438-.375-1.953-.875-1.438-2.063-2.188-6.875-4.313-4.97-2.203-7.204-3.515-9.016-5.281-1.344-1.312-1.61-1.672-2.453-3.312-1.094-2.11-1.235-2.797-1.25-5.938-.016-2.203.031-2.922.265-3.672.329-1.125 1.391-3.297 1.875-3.844 1-1.171 1.36-1.53 2.063-2.109 2.125-1.75 5.438-2.906 8.61-3.016.359 0 1.546.063 2.656.141 3.187.266 5.359 1.047 7.453 2.719 1.578 1.25 3.968 4.187 3.734 4.578-.156.234-6.39 4.39-6.797 4.516-.25.078-.422-.016-.765-.422-2.125-2.547-2.985-3.094-5.047-3.22-1.469-.093-2.25.079-3.235.735-1.03.688-1.53 1.735-1.53 3.188.015 2.125.827 3.125 3.827 4.61 1.938.952 3.594 1.733 3.719 1.733.188 0 4.203 2 5.25 2.626 4.875 2.859 6.86 5.796 7.375 10.859.375 3.812-.703 7.297-3.047 9.766"/></svg>
